components/Icon/icons/wagtail.svg

<svg width="50" height="50" viewBox="0 0 50 50" fill="none" xmlns="http://www.w3.org/2000/svg">
<path d="M33.7104 0C28.2104 0 25.1479 4.10208 23.8521 6.90208L8.37085 35.3604L12.7396 34.5437L4.7146 50L10.3146 48.9958L14.5708 36.8333C26.6854 36.8333 42.2354 32.4833 40.0667 16.1958C40.0667 16.1958 38.7458 9.63125 30.1854 11.4C29.3167 8.44167 29.4729 6.24375 31.3646 4.24583C33.9646 1.49583 37.9938 3.00417 37.9938 3.00417L37.9979 0.739583C36.5813 0.11875 35.2208 0 33.7104 0ZM38.7458 5.25625C38.4723 5.25625 38.21 5.3649 38.0166 5.5583C37.8232 5.75169 37.7146 6.014 37.7146 6.2875C37.7146 6.561 37.8232 6.82331 38.0166 7.0167C38.21 7.2101 38.4723 7.31875 38.7458 7.31875C39.0194 7.31875 39.2817 7.2101 39.475 7.0167C39.6684 6.82331 39.7771 6.561 39.7771 6.2875C39.7771 6.014 39.6684 5.75169 39.475 5.5583C39.2817 5.3649 39.0194 5.25625 38.7458 5.25625V5.25625ZM41.875 7.4L39.1833 10.6792H45.2875L41.875 7.4ZM34.1125 17.3792L34.7438 17.4L34.6604 18.5458L34.5813 19.15C34.5521 19.3667 34.5292 19.6042 34.4771 19.8542L34.3208 20.6521L34.1 21.5271C34.0125 21.8271 33.9042 22.1375 33.8021 22.4604C33.6787 22.7877 33.5495 23.1127 33.4146 23.4354L33.1792 23.9292L33.0583 24.1792L32.9208 24.4292L32.6417 24.9292L32.325 25.4187L32.1646 25.6667L31.9875 25.9042C31.8667 26.0625 31.75 26.2271 31.625 26.3833C31.3625 26.6917 31.1042 27.0083 30.8125 27.2958C30.5333 27.6 30.2188 27.8708 29.9125 28.15L29.4333 28.5458C29.2729 28.6812 29.1 28.7958 28.9333 28.9208C28.2653 29.4071 27.5619 29.843 26.8292 30.225C26.1063 30.6021 25.3771 30.9417 24.6542 31.2187C23.9313 31.5 23.225 31.7479 22.5438 31.95C21.8667 32.1583 21.2188 32.3312 20.6188 32.4812C19.4188 32.7771 18.4104 32.9812 17.7021 33.1208L16.5896 33.3333L17.6958 33.0937C18.4 32.9354 19.4042 32.7104 20.5938 32.3854C21.1896 32.2229 21.8313 32.0354 22.5 31.8104C23.1709 31.5917 23.8688 31.3312 24.5771 31.0333C25.2875 30.7417 26 30.3875 26.7063 30C27.4175 29.6067 28.0986 29.161 28.7438 28.6667C28.9021 28.5417 29.0708 28.425 29.2229 28.2896L29.6833 27.8917C29.975 27.6104 30.275 27.3396 30.5375 27.0375C30.8167 26.7521 31.0583 26.4375 31.3063 26.1354C31.425 25.9792 31.5333 25.8167 31.6458 25.6604L31.8125 25.4271L31.9625 25.1833L32.2563 24.7021L32.5146 24.2125L32.6417 23.9729L32.7521 23.7271L32.9667 23.2437C33.0938 22.9208 33.2104 22.6021 33.3209 22.2958C33.4104 21.9812 33.5083 21.6792 33.5833 21.3875L33.7792 20.5375L33.9083 19.7625C33.9542 19.5208 33.9708 19.2896 33.9958 19.0771L34.0583 18.4937L34.1125 17.3792V17.3792Z" fill="black"/>
</svg>

<svg xmlns="http://www.w3.org/2000/svg" width="100%" height="100%" fill="currentColor"
viewBox="0 0 50 50" xmlns:v="https://vecta.io/nano"><path d="M33.71 0c-5.5 0-8.562 4.102-9.858 6.902L8.371 35.36l4.369-.817L4.715 50l5.6-1.004 4.256-12.163c12.115 0 27.665-4.35 25.496-20.638 0 0-1.321-6.565-9.881-4.796-.869-2.958-.713-5.156 1.179-7.154 2.6-2.75 6.629-1.242 6.629-1.242L37.998.74C36.581.119 35.221 0 33.71 0zm5.035 5.256a1.03 1.03 0 0 0-1.031 1.031 1.03 1.03 0 0 0 1.031 1.031 1.03 1.03 0 0 0 1.031-1.031 1.03 1.03 0 0 0-1.031-1.031h0zM41.875 7.4l-2.692 3.279h6.104L41.875 7.4zm-7.763 9.979l.631.021-.083 1.146-.079.604c-.029.217-.052.454-.104.704l-.156.798-.221.875c-.087.3-.196.61-.298.933-.123.327-.253.652-.388.975l-.235.494-.121.25-.138.25-.279.5-.477.737-.177.238-.363.479c-.262.308-.521.625-.812.913-.279.304-.594.575-.9.854l-.479.396c-.16.135-.333.25-.5.375-.668.486-1.371.922-2.104 1.304-.723.377-1.452.717-2.175.994s-1.429.529-2.11.731a37.21 37.21 0 0 1-1.925.531 61.73 61.73 0 0 1-2.917.64l-1.113.212 1.106-.24c.704-.158 1.708-.383 2.898-.708a34.04 34.04 0 0 0 1.906-.575c.671-.219 1.369-.479 2.077-.777.71-.292 1.423-.646 2.129-1.033.711-.393 1.392-.839 2.038-1.333.158-.125.327-.242.479-.377l.46-.398c.292-.281.592-.552.854-.854.279-.285.521-.6.769-.902.119-.156.227-.319.34-.475l.167-.233.15-.244.294-.481.385-.729.11-.246.215-.483a35.04 35.04 0 0 0 .354-.948l.262-.908.196-.85.129-.775c.046-.242.063-.473.088-.685l.063-.583.054-1.114z" fill="currentColor"/></svg>
